section-11/tick.svg

<svg width="26" height="26" viewBox="0 0 26 26" fill="none" xmlns="http://www.w3.org/2000/svg">
<path d="M16.8726 9.08626L11.3522 14.6068L9.12721 12.3818C9.1272 12.3818 9.12719 12.3818 9.12718 12.3818C8.70259 11.957 8.014 11.957 7.5894 12.3818C7.16458 12.8064 7.16457 13.495 7.58937 13.9196C7.58938 13.9196 7.58939 13.9196 7.5894 13.9196L10.5833 16.9137L10.5834 16.9138C11.0081 17.3383 11.6965 17.3383 12.1213 16.9138L12.1213 16.9137L18.4106 10.6243C18.4106 10.6243 18.4106 10.6243 18.4106 10.6243C18.8354 10.1996 18.8354 9.51102 18.4106 9.08626C17.986 8.66163 17.2974 8.66167 16.8727 9.08623L16.8726 9.08626ZM13 25.15C19.7149 25.15 25.15 19.7158 25.15 13C25.15 6.28508 19.7158 0.85 13 0.85C6.28508 0.85 0.85 6.28415 0.85 13C0.85 19.7149 6.28415 25.15 13 25.15ZM13 3.025C18.5131 3.025 22.975 7.48623 22.975 13C22.975 18.5131 18.5138 22.975 13 22.975C7.48695 22.975 3.025 18.5138 3.025 13C3.025 7.48695 7.48623 3.025 13 3.025Z" fill="#198580" stroke="#198580" stroke-width="0.3"/>
</svg>

<svg xmlns="http://www.w3.org/2000/svg" width="26" height="26" fill="none"><path fill="#198580" stroke="#198580" stroke-width=".3" d="m16.873 9.086-5.52 5.52-2.226-2.224A1.087 1.087 0 1 0 7.59 13.92l2.994 2.994a1.088 1.088 0 0 0 1.538 0l6.29-6.29a1.087 1.087 0 1 0-1.538-1.538ZM13 25.15c6.715 0 12.15-5.434 12.15-12.15C25.15 6.285 19.716.85 13 .85 6.285.85.85 6.284.85 13c0 6.715 5.434 12.15 12.15 12.15Zm0-22.125A9.97 9.97 0 0 1 22.975 13 9.97 9.97 0 0 1 13 22.975 9.97 9.97 0 0 1 3.025 13 9.97 9.97 0 0 1 13 3.025Z"/></svg>
